packages/foundations/assets/icons/functional/images/x_placeholder_32.svg

<svg width="32" height="32" viewBox="0 0 32 32" fill="none" xmlns="http://www.w3.org/2000/svg">
    <g clip-path="url(#clip0_52_1010)">
        <path d="M8.88889 7.11612C8.40073 6.62796 7.60928 6.62796 7.12112 7.11612C6.63297 7.60427 6.63297 8.39573 7.12112 8.88388L14.2372 16L7.12112 23.1161C6.63297 23.6043 6.63297 24.3957 7.12112 24.8839C7.60928 25.372 8.40073 25.372 8.88889 24.8839L16.005 17.7678L23.1211 24.8839C23.6093 25.372 24.4007 25.372 24.8889 24.8839C25.377 24.3957 25.377 23.6043 24.8889 23.1161L17.7728 16L24.8889 8.88388C25.377 8.39573 25.377 7.60427 24.8889 7.11612C24.4007 6.62796 23.6093 6.62796 23.1211 7.11612L16.005 14.2322L8.88889 7.11612Z" fill="#1A1C1F"/>
        <path fill-rule="evenodd" clip-rule="evenodd" d="M2 3C2 2.44771 2.44772 2 3 2H29C29.5523 2 30 2.44772 30 3V29C30 29.5523 29.5523 30 29 30H3C2.44771 30 2 29.5523 2 29V3ZM3 3H29V29H3L3 3Z" fill="#1A1C1F"/>
    </g>
    <defs>
        <clipPath id="clip0_52_1010">
            <rect width="32" height="32" fill="white"/>
        </clipPath>
    </defs>
</svg>

<svg xmlns="http://www.w3.org/2000/svg" width="32" height="32" fill="none"><g fill="#1A1C1F" clip-path="url(#a)"><path d="M8.889 7.116A1.25 1.25 0 1 0 7.12 8.884L14.237 16l-7.116 7.116a1.25 1.25 0 0 0 1.768 1.768l7.116-7.116 7.116 7.116a1.25 1.25 0 0 0 1.768-1.768L17.773 16l7.116-7.116a1.25 1.25 0 0 0-1.768-1.768l-7.116 7.116z"/><path fill-rule="evenodd" d="M2 3a1 1 0 0 1 1-1h26a1 1 0 0 1 1 1v26a1 1 0 0 1-1 1H3a1 1 0 0 1-1-1zm1 0h26v26H3z" clip-rule="evenodd"/></g><defs><clipPath id="a"><path fill="#fff" d="M0 0h32v32H0z"/></clipPath></defs></svg>
